X: 172
M:6/8
L:1/8
Q:160
K:D
|: f2 a e2 a|fed cBA| d2 d ede|fAf e3|b3 a3|g3 f3|ede fed|B2 c d3:|

